public/images/cy11.svg

<svg width="100" height="100" viewBox="0 0 100 100" fill="none" xmlns="http://www.w3.org/2000/svg">
<path d="M8.13415 58.7688L4.07709 45.6187H3.9742C4.12119 48.2909 4.19469 50.0768 4.19469 50.9762V58.7688H1V42H5.86553L9.85399 54.8092H9.92259L14.1511 42H19.0167V58.7688H15.6995V50.8203C15.6995 50.4469 15.6995 50.0151 15.6995 49.5248C15.6995 49.0345 15.7518 47.7357 15.8563 45.6285H15.7534L11.4072 58.7688H8.13415Z" fill="#2D2D2D"/>
<path d="M31.1633 58.7687L30.4822 57.0251H30.3989C29.9185 57.6725 29.2927 58.1995 28.5713 58.5642C27.7945 58.8783 26.9593 59.0245 26.1213 58.9928C25.5851 59.0248 25.048 58.9481 24.5426 58.7672C24.0371 58.5864 23.574 58.3052 23.1814 57.9408C22.8087 57.5384 22.5218 57.0651 22.3382 56.5494C22.1547 56.0337 22.0781 55.4865 22.1133 54.9406C22.067 54.3569 22.1741 53.7712 22.4241 53.241C22.674 52.7108 23.0583 52.2543 23.5391 51.9161C24.4962 51.2667 25.9384 50.9095 27.8657 50.8446L30.1 50.7764V50.2163C30.1 48.9175 29.432 48.2681 28.096 48.2681C26.8344 48.3239 25.5981 48.639 24.4652 49.1935L23.3284 46.8362C24.8529 46.0541 26.5472 45.656 28.2626 45.6771C29.9906 45.6771 31.3168 46.0505 32.2412 46.7973C33.1657 47.5441 33.6262 48.6805 33.623 50.2065V58.7687H31.1633ZM30.1245 52.8171L28.7623 52.8609C27.9649 52.8333 27.1751 53.0236 26.479 53.4113C26.2313 53.5808 26.032 53.8112 25.9006 54.0801C25.7692 54.349 25.7102 54.6471 25.7294 54.9454C25.7294 55.9195 26.2977 56.4066 27.4345 56.4066C27.7913 56.4249 28.1482 56.3728 28.4846 56.2532C28.821 56.1337 29.1302 55.9491 29.3944 55.7101C29.6409 55.4694 29.8333 55.1797 29.9591 54.8599C30.085 54.5401 30.1413 54.1975 30.1245 53.8545V52.8171Z" fill="#2D2D2D"/>
<path d="M46.23 54.9458C46.2638 55.5195 46.1561 56.0928 45.9161 56.6157C45.6761 57.1386 45.3112 57.5952 44.8531 57.9459C43.9352 58.6343 42.5616 58.9785 40.7323 58.9785C39.9272 58.9831 39.1234 58.913 38.3314 58.769C37.6942 58.6506 37.0716 58.4645 36.4744 58.2138V55.3597C37.1847 55.6856 37.9246 55.9433 38.6842 56.1293C39.3892 56.319 40.1149 56.422 40.845 56.4361C42.1223 56.4361 42.7609 56.0692 42.7609 55.3354C42.7662 55.2121 42.7463 55.089 42.7025 54.9735C42.6588 54.858 42.5919 54.7524 42.5061 54.6633C42.2436 54.4274 41.9482 54.2306 41.629 54.0788C41.2142 53.8613 40.6605 53.608 39.968 53.319C39.1965 53.0248 38.463 52.6406 37.7826 52.1745C37.3505 51.8642 37.0021 51.4526 36.7684 50.9764C36.5413 50.4457 36.4326 49.8725 36.4499 49.2961C36.4284 48.7798 36.5394 48.2666 36.7726 47.8048C37.0058 47.3429 37.3534 46.9477 37.7826 46.6563C38.6711 46.0329 39.9288 45.7212 41.5555 45.7212C43.1175 45.7192 44.6611 46.0566 46.0781 46.7099L45.0197 49.2328C44.3664 48.9568 43.7637 48.7311 43.2117 48.5558C42.6554 48.3809 42.0753 48.2922 41.4918 48.2928C40.4531 48.2928 39.9337 48.572 39.9337 49.1305C39.9389 49.2963 39.9866 49.4581 40.0724 49.6004C40.1581 49.7428 40.2791 49.861 40.4237 49.9438C41.1323 50.354 41.8769 50.6996 42.6482 50.9764C43.4302 51.2635 44.174 51.6446 44.8629 52.1112C45.302 52.4267 45.6583 52.8427 45.9017 53.3239C46.1317 53.8333 46.2438 54.3875 46.23 54.9458Z" fill="#2D2D2D"/>
<path d="M57.9605 54.9457C57.9944 55.5194 57.8866 56.0927 57.6467 56.6156C57.4067 57.1385 57.0418 57.5952 56.5837 57.9459C55.6658 58.6342 54.2922 58.9784 52.4629 58.9784C51.6601 58.9891 50.8579 58.9255 50.0669 58.7884C49.4297 58.67 48.8071 58.4839 48.2099 58.2332V55.3597C48.9186 55.6852 49.6569 55.9429 50.4148 56.1292C51.1198 56.3188 51.8454 56.4219 52.5756 56.436C53.8528 56.436 54.4915 56.0691 54.4915 55.3353C54.4968 55.212 54.4769 55.0889 54.4331 54.9734C54.3893 54.8579 54.3225 54.7524 54.2367 54.6632C53.9742 54.4273 53.6788 54.2305 53.3596 54.0787C52.9447 53.8612 52.3911 53.6079 51.6986 53.319C50.925 53.022 50.1897 52.6345 49.5083 52.1647C49.09 51.853 48.7537 51.4452 48.5284 50.9763C48.3013 50.4457 48.1926 49.8724 48.2099 49.296C48.1804 48.7788 48.2841 48.2627 48.5113 47.7965C48.7386 47.3303 49.0817 46.9294 49.5083 46.6319C50.3968 46.0085 51.6545 45.6968 53.2812 45.6968C54.8566 45.6974 56.4125 46.0433 57.838 46.7098L56.7797 49.2327C56.1264 48.9567 55.5237 48.731 54.9716 48.5557C54.4153 48.3809 53.8353 48.2922 53.2518 48.2927C52.213 48.2927 51.6937 48.5719 51.6937 49.1304C51.6989 49.2962 51.7466 49.458 51.8324 49.6003C51.9181 49.7427 52.039 49.8609 52.1836 49.9438C52.8829 50.3523 53.6175 50.6979 54.3788 50.9763C55.1608 51.2634 55.9046 51.6445 56.5935 52.1111C57.0326 52.4266 57.3889 52.8426 57.6322 53.3238C57.8622 53.8333 57.9744 54.3875 57.9605 54.9457Z" fill="#2D2D2D"/>
<path d="M65.9375 58.9781C61.9262 58.9781 59.9205 56.7897 59.9205 52.4128C59.9205 50.2374 60.466 48.5749 61.5571 47.4255C62.6481 46.2761 64.2112 45.7014 66.2462 45.7014C67.637 45.684 69.0127 45.9892 70.2641 46.5927L69.2253 49.2957C68.6733 49.075 68.1588 48.8931 67.6819 48.7503C67.2177 48.6117 66.7357 48.5412 66.2511 48.5408C64.4218 48.5408 63.5072 49.8396 63.5072 52.4372C63.5072 54.9438 64.4218 56.1971 66.2511 56.1971C66.8884 56.2036 67.5229 56.1133 68.1326 55.9292C68.7465 55.7314 69.3289 55.4477 69.8623 55.0867V58.0771C69.3267 58.4017 68.7405 58.6354 68.1277 58.7687C67.408 58.921 66.6732 58.9912 65.9375 58.9781Z" fill="#2D2D2D"/>
<path d="M81.0291 58.7687L80.348 57.0251H80.2549C79.7702 57.6685 79.141 58.1905 78.4175 58.5495C77.6408 58.8637 76.8056 59.0098 75.9676 58.9781C75.4314 59.0102 74.8942 58.9335 74.3888 58.7526C73.8834 58.5718 73.4203 58.2906 73.0277 57.9261C72.6549 57.5237 72.3681 57.0504 72.1845 56.5348C72.0009 56.0191 71.9244 55.4718 71.9595 54.926C71.9178 54.3445 72.0281 53.7623 72.2797 53.2357C72.5312 52.7092 72.9155 52.2562 73.3952 51.9209C74.3523 51.2715 75.7945 50.9144 77.7217 50.8494L79.9561 50.7812V50.2163C79.9561 48.9175 79.288 48.2681 77.952 48.2681C76.6904 48.3239 75.4542 48.639 74.3212 49.1935L73.1551 46.8313C74.6795 46.0492 76.3738 45.6512 78.0892 45.6722C79.8172 45.6722 81.1434 46.0456 82.0679 46.7924C82.9923 47.5392 83.4529 48.6756 83.4496 50.2017V58.7687H81.0291ZM79.9904 52.8317L78.6282 52.8755C77.8338 52.8441 77.0458 53.0293 76.3498 53.4113C76.1021 53.5807 75.9028 53.8112 75.7714 54.0801C75.64 54.349 75.581 54.6471 75.6001 54.9454C75.6001 55.9195 76.1685 56.4066 77.3052 56.4066C77.662 56.4252 78.019 56.3732 78.3555 56.2536C78.6919 56.1341 79.0011 55.9493 79.2652 55.7101C79.5116 55.4694 79.7041 55.1797 79.8299 54.8599C79.9557 54.5401 80.0121 54.1974 79.9953 53.8545L79.9904 52.8317Z" fill="#2D2D2D"/>
<path d="M98.9967 58.7689H95.4787V51.2685C95.5311 50.5419 95.3602 49.8167 94.9887 49.1888C94.8047 48.9517 94.564 48.7642 94.2884 48.6434C94.0128 48.5226 93.7111 48.4724 93.4109 48.4972C93.0012 48.462 92.5892 48.5332 92.2156 48.704C91.8419 48.8747 91.5193 49.1392 91.2795 49.4713C90.8418 50.1207 90.6229 51.2036 90.6229 52.7199V58.7689H87.1097V45.9403H89.7948L90.2848 47.5767H90.4808C90.8705 46.9605 91.4348 46.4725 92.1027 46.1741C92.8396 45.8425 93.6409 45.6762 94.4497 45.687C95.949 45.687 97.0923 46.0896 97.8796 46.8949C98.6668 47.7001 99.0392 48.8674 98.9967 50.3967V58.7689Z" fill="#2D2D2D"/>
</svg>

<svg xmlns="http://www.w3.org/2000/svg" width="100" height="100" fill="none"><path fill="#2D2D2D" d="m8.134 58.769-4.057-13.15h-.103q.22 4.008.22 5.357v7.793H1V42h4.866l3.988 12.81h.069L14.15 42h4.866v16.769H15.7v-9.244q0-.736.156-3.896h-.103l-4.346 13.14zM31.163 58.769l-.68-1.744h-.084a5.2 5.2 0 0 1-1.828 1.54 5.9 5.9 0 0 1-2.45.428 3.98 3.98 0 0 1-2.94-1.052 4.04 4.04 0 0 1-1.068-3c-.046-.584.061-1.17.311-1.7s.634-.987 1.115-1.325q1.436-.974 4.327-1.071l2.234-.069v-.56q0-1.948-2.004-1.948a9.2 9.2 0 0 0-3.63.925l-1.138-2.357a10.5 10.5 0 0 1 4.935-1.159q2.592 0 3.978 1.12t1.382 3.41v8.562zm-1.038-5.952-1.363.044a4.4 4.4 0 0 0-2.283.55 1.73 1.73 0 0 0-.75 1.534q0 1.462 1.706 1.462a2.72 2.72 0 0 0 1.96-.697 2.43 2.43 0 0 0 .73-1.855zM46.23 54.946a3.51 3.51 0 0 1-1.377 3q-1.377 1.032-4.12 1.032a13 13 0 0 1-2.402-.209 9 9 0 0 1-1.857-.555V55.36c.71.326 1.45.583 2.21.77.705.189 1.43.292 2.161.306q1.916 0 1.916-1.1a.9.9 0 0 0-.255-.673 3.7 3.7 0 0 0-.877-.584q-.622-.327-1.661-.76a10.5 10.5 0 0 1-2.185-1.145 3.2 3.2 0 0 1-1.015-1.198 4 4 0 0 1-.318-1.68c-.022-.516.09-1.03.323-1.491a3.05 3.05 0 0 1 1.01-1.149q1.332-.935 3.773-.935a10.8 10.8 0 0 1 4.522.989l-1.058 2.523a21 21 0 0 0-1.808-.677 5.7 5.7 0 0 0-1.72-.263q-1.558 0-1.558.837a.97.97 0 0 0 .49.814c.708.41 1.453.756 2.224 1.032.782.288 1.526.669 2.215 1.135.439.316.795.732 1.039 1.213.23.51.342 1.064.328 1.622M57.96 54.946a3.51 3.51 0 0 1-1.376 3q-1.377 1.032-4.121 1.032c-.803.011-1.605-.053-2.396-.19a9 9 0 0 1-1.857-.555V55.36c.709.325 1.447.583 2.205.77.705.189 1.43.292 2.16.306q1.916 0 1.916-1.1a.9.9 0 0 0-.254-.673 3.7 3.7 0 0 0-.877-.584 22 22 0 0 0-1.661-.76 10.5 10.5 0 0 1-2.19-1.154 3.2 3.2 0 0 1-.98-1.189 4 4 0 0 1-.32-1.68 3.03 3.03 0 0 1 1.3-2.664q1.332-.935 3.772-.935c1.576 0 3.132.346 4.557 1.013l-1.058 2.523a21 21 0 0 0-1.808-.677 5.7 5.7 0 0 0-1.72-.263q-1.558 0-1.558.837a.97.97 0 0 0 .49.814c.699.408 1.434.754 2.195 1.032.782.287 1.526.669 2.215 1.135.439.316.795.732 1.038 1.213.23.51.342 1.064.329 1.622M65.938 58.978q-6.018 0-6.018-6.565 0-3.264 1.637-4.987 1.636-1.725 4.69-1.725a9 9 0 0 1 4.017.892l-1.039 2.703a18 18 0 0 0-1.543-.546 5 5 0 0 0-1.43-.21q-2.745 0-2.745 3.897 0 3.76 2.744 3.76a6.3 6.3 0 0 0 1.882-.268 6.8 6.8 0 0 0 1.73-.842v2.99a5.7 5.7 0 0 1-1.735.692 9.7 9.7 0 0 1-2.19.21M81.03 58.769l-.682-1.744h-.093a5.2 5.2 0 0 1-1.837 1.525 5.9 5.9 0 0 1-2.45.428 3.98 3.98 0 0 1-2.94-1.052 4.04 4.04 0 0 1-1.069-3 3.36 3.36 0 0 1 .32-1.69c.252-.527.636-.98 1.116-1.315q1.436-.975 4.327-1.072l2.234-.068v-.565q0-1.948-2.004-1.948a9.2 9.2 0 0 0-3.63.925l-1.167-2.362a10.5 10.5 0 0 1 4.934-1.159q2.592 0 3.979 1.12 1.386 1.12 1.382 3.41v8.567zm-1.04-5.937-1.362.044a4.4 4.4 0 0 0-2.278.535 1.73 1.73 0 0 0-.75 1.534q0 1.462 1.705 1.462a2.72 2.72 0 0 0 1.96-.697 2.44 2.44 0 0 0 .73-1.855zM98.997 58.769h-3.518v-7.5a3.58 3.58 0 0 0-.49-2.08 1.8 1.8 0 0 0-1.578-.692 2.38 2.38 0 0 0-2.132.974q-.656.975-.656 3.249v6.049H87.11V45.94h2.685l.49 1.637h.196a3.7 3.7 0 0 1 1.622-1.403 5.5 5.5 0 0 1 2.347-.487q2.248 0 3.43 1.208t1.117 3.502z"/></svg>
